X: 1
T:Breestheen Mira
B:Joyce, P. W.; "Old Irish Folk Music and Songs"
N:See #286 for history
A:Kilkenny
O:Irish
R:single jig/song air
L:1/8
M:6/8
K:G
"With spirit"\
D|\
G2 A B2 c|d2 g fdc|ded d2 c|B2 d cAF|
G2 A B2 c|d2 g fdc|B2 d cAF|GAG G2 z:|
|:g2 a b2 g|a2 g fdc|ded d2 c|B2 d cAG|
  g2 a b2 g|a2 g b2 g|a2 g fdc|B2 d cAF|G3 G2::B|
d2 c BAG|d2 c Bcd|efg dcB|ABA A2 e|
d2 c BAG|d2 c Bcd|efg d2 B|GAG G2 z:|
